X:9
T:9 Sancta mater, istud agas
T:à due
M:C
L:1/8
%%staves s | a | {1 2 3}
Q:"A Tempo giusto"
K:Eb
% (38)
V:s name=Sopran dyn=up
z8|z8|z8|
V:a name=Alt dyn=up
z8|z8|z8|
V:1 name="Str.\nBc."
e4B4|Ee- (Te3/d//c//) (f//g3//)(a//b3//) (Tc'3/b//a//)|(g/f/)(b/g/)e4(d//c3//)(B//A3//)|
V:2
GGGG FFFF|EEx2x4|x4FFFF|
V:3
E,E,E,E, D,D,D,D,|C,C,[G,,E,][G,,E,] [A,,E,]A,[D,F,][D,F,]|[E,B,][E,G,]G,G, A,A,B,B,|
V:s		% M4
z8|z8|z8|
V:a
z8|z8|z8|
V:1
(G/E/)(E/G/) (G/B/)(B/_d/) (c/=d/)(d/e/) (e/c/)(B/A/)|(G/c/)(B/d/) e/B/G/E/ (F/A/)(G/B/) (TA3/G//F//)|G/(e/d/e/ d/e/d/e/)(=A4|
V:2
x8|x4DDDD|!dolce!E2z2!forte!z(_GFE)|
V:3
E,[E,G,][E,G,][E,G,] [E,A,][E,A,][E,A,][E,A,]|[E,B,][E,B,][E,B,][E,B,] B,,B,,B,,B,,|E,2z2z(_G,F,E,)|
V:s		% M7
z8|z8|z8|
V:a
z8|z8|z8|
V:1
B/)(f/=e/f/ e/f/e/f/)_A4|(G/c/A/F/){E}D2E/(e/f/e/ f/e/f/e/)|=A4B/(f/=e/f/ e/f/e/f/)|
V:2
!dolce!D2z2!forte!x4|x4x!dolce!x3|x8|
V:3
D,2z2z[B,,B,][C,C][D,D]|[E,E][A,C]B,[B,,A,][E,G,]2z2|z(_G,F,E,)D2z2|
% (39)
V:s		% M10
z8|z4e4|B4E/D/{D}E3|
w:San-cta ma -ter,
V:a
z8|z8|z8|
V:1
_A4(G/c/A/F/){E}D2|EB,G,2[GB][GB][GB][GB]|[FB][FB][FB][FB] [EG][EG][EG][EG]|
V:2
!forte!x8|x4!dolce!x4|x8|
V:3
z[B,,B,][C,C][D,D] [E,E][A,C]B,[B,,B,]|[E,G,]2z2E,E,E,E,|D,D,D,D, C,C,G,,G,,|
V:s		% M13
(F/G/A/B/ c) B/A/ (G/F/E)e2-|e2(d//c3//) (B//A3//) (G/F/) Ez2|B(B2c) A (A2f)|
w:i ----stud_ a --gas,_ i -stud_ a -gas cru-ci -fi-xi -
V:a
z8|z8|z8|
V:1
[EF][EF][FA][FA] [B,G][EG][EG][EG]|[EF][EF][DF][DF] [EG]e2d|z[GB] z[Gc] z[FA] z[FB]|
V:2
x8|x8|x8|
V:3
A,,A,D,D, E,E,G,,G,,|A,,A,,B,,B,, E,G,F,A,|G,z E,z F,z D,z|
V:s		% M16
(Ge2)G G Fz2|TB4Tc4|d/e/ fz2=e3e|
w:fi -ge pla-gas cor-di me -o, cor-di
V:a
z8|z8|z8|
V:1
z[EG] z[EG] [EG][DF]z2|TB4Tc4|d/(b/=a/b/ a/b/a/b/)=e4|
V:2
x8|!forte!x8|x!dolce!x3!forte!x4|
V:3
E,z =A,,z zB,,D,F,|zB,DB, zF,=A,F,|B,2z2z(_DCB,)|
% (40)
V:s		% M19
f/=e/ fz2_e3e|(d/f/e/g/ f/d/) e/c/ TB3/c/ Tc3/ B/|B2z2!dolce!T=e3e|
w:me -o, cor-di me -----o_ va --li-de, cor-di
V:a
z8|z8|z8|
V:1
f/(c'/=b/c'/ b/c'/b/c'/){f}_e4|(d/f/)(e/g/) (f/d/) (e/c/) TB3/c/ c2|z/(b/=a/b/ a/b/a/b/){f}=e4|
V:2
x!dolce!x3!forte!x4|x8|x!dolce!x3x4|
V:3
=A,2z2zF,G,A,|B,CDF, zG,E,F,|B,,2z2z(_DCB,)|
V:s		% M22
f/=e/ fz2!forte!_e3e|(d/f/e/g/ f/d/) (e/c/) TB3/c/ Tc3/ B/|B2z2z4|
w:me -o, cor-di me -----o_ va --li-de.
V:a
z8|z8|z8|
V:1
(f/c'/=b/c'/ b/c'/b/c'/){f}_e4|(d/f/)(e/g/) (f/d/) (e/c/) TB3/c/ {d}Tc2|(d/B/)(B/d/) (d/f/)(f/_a/) (g/=a/)(a/b/) (b/f/)(d/B/)|
V:2
x4!forte!x4|x8|!forte!x8|
V:3
=A,2z2zF,G,A,|B,CDF, zG,E,F,|[B,D][B,D][B,D][B,D] [B,E][B,E][B,D][B,D]|
V:s		% M25
z8|z8|z8|
V:a
z8|z8|B4F4|
w:Tu-i
V:1
(c/e/d/f/) (Te3/d//c//) (d/f/)(e/g/) (f/d/)(e/c/)|(TB3/c/)T!trill(!c2!trill)!BFB,2|[Fd][Fd][Fd][Fd] [Fc][Fc][Fc][Fc]|
V:2
x8|B,B,2=A,x4|!dolce!x8|
V:3
[F,E][F,E][F,=A,][F,A,] [B,,B,][C,A,][D,B,][F,A,]|zG,E,F,[B,,B,]2z2|B,B,B,B, =A,A,A,A,|
% (41)
V:s		% M28
z8|z8|z8|
V:a
D/C/B,3(C//D3//E//F3// G) F/E/|D/C/ B,(TB4=A//G3//) (F//E3//)|(D/C/) B,z2F(F2G)|
w:na -ti vul ----ne -ra -ri, vul --ne -ra -ri tam dig -
V:1
[DB][Bd][Bd][Bd] [Bc][Bc][ce][ce]|[Fd][Bd][Bd][Bd] [Bc][Bc][=Ac][Ac]|B(b2=a) z[df] z[dg]|
V:2
x8|x8|x4!dolce!x4|
V:3
G,G,D,D, E,E,=A,,A,,|B,,B,,D,D, E,E,F,F,|B,,D,C,E, D,z B,,z|
V:s		% M31
z8|z8|z8|
V:a
E(E2c) (DB2)D|D Cz2TF4|TG4=A/G/ Fz2|
w:na-ti_ pro_ me pa-ti poe-nas me -cum,
V:1
z[ce] z[cf] z[Bd] z[Bd]|[Bd][=Ac]z2Tf4|Tg4=a/(f/=e/f/ e/f/e/f/)|
V:2
x8|x4!forte!x4|x4x!dolce!x3|
V:3
C,z F,,z B,,z =E,z|zF,=A,C zF,A,F,|zC,=E,C,F,2z2|
V:s		% M34
z8|z8|z8|
V:a
=B4c2z2|_B3B (=A/c/B/d/ c/A/) B/G/|TF3/G/ TG3/ F/F2z2|
w:poe-nas, poe-nas me -----cum_ di --vi-de,
V:1
{c}=B4c/(g/^f/g/ f/g/f/g/)|{c}_B4(=A/c/)(B/d/) (c/A/)(B/G/)|TF3/G/TG2z/(f/=e/f/ e/f/e/f/)|
V:2
!forte!x4!dolce!x4|!forte!x8|x4!dolce!x4|
V:3
z(_A,G,F,)=E,2z2|zC,D,=E, F,G,=A,C,|zD,B,,C,F,,2z2|
% (42)
V:s		% M37
z8|z8|z8|
V:a
!dolce!=B4c2z2|!forte!_B3B (=A/c/B/d/ c/A/) B/G/|TF3/G/ TG3/ F/F2z2|
w:poe-nas, poe-nas me -----cum_ di --vi-de.
V:1
{c}=B4c/(g/^f/g/ f/g/f/g/)|{c}_B4(=A/c/)(B/d/) (c/A/)(B/G/)|TF3/G/TG2f4|
V:2
x8|!forte!x8|x4!forte!=AAAA|
V:3
z(_A,G,F,)=E,2z2|zC,D,=E, F,G,=A,C,|zD,B,,C, F,F,F,F,|
V:s		% M40
z8|z8|c3_d{d}c3d|
w:Fac me ve-re
V:a
z8|z8|_A3B{B}A3B|
w:Fac me ve-re
V:1
c4(=A/c/)(B/d/) (c/A/)(B/G/)|TF3/G/TG2FC=A,2|([_Ac]3[B_d]{[Bd]}[Ac]3[Bd]|
V:2
GGGG F=EFE|F2F=EF2z2|x8|
V:3
=E,E,E,E, F,G,=A,C,|zD,B,,C,F,,2z2|z2[F,F]2-[F,F][_G,=E][F,F]2-|
V:s		% M43
{_d}c3_d c B/A/ B A/G/|A/G/ Fz2_d3e|{e}_d3e{e}d3e|
w:te-cum fle-re,_ te-cum_ fle -re, cru-ci-fi-xo con-do-
V:a
{B}A3B A G/F/ G F/=E/|F/=E/ Fz2F3_G|{_G}F3_G{G}F3G|
w:te-cum fle-re,_ te-cum_ fle -re, cru-ci-fi-xo con-do-
V:1
{[B_d]}[Ac]3)[B_d] [Ac][GB]/[FA]/ [GB][FA]/[=EG]/|[FA]/[=EG]/Fz2([_df]3[_e_g]|{[e_g]}[_df]3[e_g]{[eg]}[df]3[eg]|
V:2
x8|x8|x8|
V:3
[F,F][_G,=E][F,F]2-[F,F][F,F][C,C][C,C]|F,[_E,_G,][_D,F,][C,E,][B,,D,]2[B,B]2-|[B,B][_C=A][B,B]2-[B,B][CA][B,B]2-|
% (43)
V:s		% M46
{e}_d3e (dc/B/) (cB/=A/)|B/=A/ Bz2z4|g2B2(_Ac2)B|
w:le-re, con --do --le -re, do-nec e -go
V:a
{_G}F3_G (FE/_D/) (ED/C/)|_D/C/ B,z2B2_d2|=E4(FA2G)|
w:le-re, con --do --le -re, do-nec e-go__
V:1
{[e_g]}[_df]3)[e_g] [df][ce]/[Bd]/ [ce][Bd]/[=Ac]/|[B_d]/[=Ac]/Bz2B2d2|[=g2=E4]B2[F_A][Ac]2[GB]|
V:2
x8|B,B,2=A,x4|C8-|
V:3
[B,B][_C=A][B,B]2-[B,B][B,B][F,F][F,F]|B,,_D,C,E,[D,B,]4|C,4C,2C,2-|
V:s		% M49
A3AG2z2|!forte!T_e4Td4|c/=B/ cz2z4|
w:vi-xe-ro, do-nec e -go,
V:a
F3F=E2z2|!forte!TG4TF4|_E/D/ Ez2^F4|
w:vi-xe-ro, do-nec e -go, do-
V:1
[FA][FA][FA][FA][=EG]2z2|T[_eg]4T[df]4|e/(c'/=b/c'/ b/c'/b/c'/)(^f4|
V:2
Cx3x4|!forte!x8|x!dolce!x3!forte!x4|
V:3
C,[=B,,=B,][B,,B,][B,,B,] [C,C]2z2|z[C,C][_E,_E][C,C] z[D,D][=B,,=B,][G,,G,]|[C,C]2z2z([E,E][D,D][C,C])|
V:s		% M52
z4f3f|(ed/e/ f) e/d/(c2=B3/) B/|c2z2z4|
w:do-nec e ---go_ vi -xe-ro.
V:a
G2z2_A3A|(GF/G/ A) G/F/(E2D3/) D/|C2z2z4|
w:nec, do-nec e ---go_ vi -xe-ro.
V:1
g/)(d'/^c'/d'/ c'/d'/c'/d'/)[=f_a]4|[eg][df]/[ce]/ [fa][eg]/[df]/ [ce][ce][=Bd][Bd]|(c3_d)(c3=B)|
V:2
x!dolce!x3!forte!x4|x8|!dolce!x8|
V:3
[=B,,=B,]2z2z[B,,B,][B,,B,][B,,B,]|[C,C][C,C][F,,F,][F,,F,] [G,,G,][G,,G,][G,,G,][G,,G,]|C,A,G,F, E,F,E,=D,|
% (44)
V:s		% M55
c4g4|(e/d/)c3(d/e/f/g/ a) g/f/|e/d/ cz2z4|
w:Jux-ta cru -cem te ----cum_ sta -re,
V:a
z8|z8|z4G4|
w:te
V:1
c4g4|(e/d/)c3d/e/f/g/ ag/f/|e/d/cz2_BBBB||
V:2
Ex3x4|x4ccdd|zG2^FG4|
V:3
C,[CE][CE][CE] [_B,D][B,D][B,D][B,D]|[A,C][A,C][E,C][E,C] F,F,=B,,B,,|C,C_B,=A, G,G,G,G,|
V:s		% M58
z8|z4z2zB|(_d4-dc) c B|
w:in plan --ctu de-
V:a
d4B/=A/G3|(=A/B/c/d/ e) d/c/ B/A/ G zG|(B4-B_A) A G|
w:li-ben -ter, so ----ci -a -re in plan --ctu de-
V:1
d4B/=A/G3|=A/B/c/d/ ed/c/ B/A/G zb|[b_d']4-[bd'][=ac'][ac'][gb]|
V:2
=AAAA GG3|GA/B/ cB/A/ G/^F/E xg|x8|
V:3
F,F,F,F, E,E,B,,B,,|C,C,^F,,F,, G,,G,G,,2|zG,G,F,=E,4|
V:s		% M61
TA3AG2zf|=B4c2z_B|(_d4cB/c/) d c/B/|
w:si-de-ro, in plan-ctu, in plan ---ctu de -
V:a
TF3F=E2z2|z4z2zC|(_B4AG/A/) B A/G/|
w:si-de-ro, in plan ---ctu de -
V:1
T[fa]4g/(f/=e/f/ e/f/e/f/)|{c}(=B4c/)(g/^f/g/ f/g/f/g/)|[_B_d]4[Ac][GB]/[Ac]/ [Bd][Ac]/[GB]/|
V:2
!forte!x4!dolce!x4|!forte!z(_AGF)!dolce!=E2z2|!forte!x8|
V:3
zF,=B,,B,,C,2z2|z(_A,G,F,)=E,2z2|zw[C,C]w[=D,=D]w[=E,=E] [F,F][F,F][B,,B,][B,,B,]|
% (45)
V:s		% M64
(A2G3/) G/F2z2|z8|z8|
w:si -de-ro.
V:a
(F2=E3/) E/F2z2|z8|z8|
w:si -de-ro.
V:1
[FA][FA][=EG][EG](f3_g|f3=e)(f3_g|f3=e) (f3/_e//_d//) (c/d/B/G/)|
V:2
x4!dolce!x4|x8|x4!forte!x4|
V:3
[C,C][C,C][C,C][C,C] F,_DCB,|A,B,A,G, F,_D,C,B,,|A,,B,,A,,G,, F,,G,,A,,B,,|
V:s		% M67
z4f4|c4A3/ G/F2|(G/A/B/c/ _dc/B/) A/G/ Fz2|
w:Vir-go vir-gi-num prae ------cla -ra,
V:a
z8|z8|z8|
V:1
(F2=E2)f4|c4AAAA|G/A/B/c/ _dc/B/A2z2|
V:2
x4!dolce!FAAA|GGGGf4|B4f/g/a/b/ c'b/a/|
V:3
C,C,C,C, F,F,F,F,|E,E,E,E, _D,D,A,,A,,|B,,B,=E,E, F,F,=D,D,|
V:s		% M70
z8|z8|z4B3c|
w:fac me
V:a
e4B4|E3E (F/G/A/B/ c) B/A/|G/F/ Ez2G3A|
w:mi-hi jam non sis____ a -ma -ra, fac me
V:1
e4B4|GGGG F/G/A/B/ cB/A/|G/F/ Ez2z[gb] z[ac']|
V:2
gGGG FFFF|e4A4|G e2dx4|
V:3
E,E,E,E, D,D,D,D,|C,C,G,,G,, A,,A,D,D,|E,G,F,A, G,z E,z|
% (46)
V:s		% M73
{B}A3B{A}G3G|F2z2F3_G|{_G}F3_G{G}F3G|
w:te-cum plan-ge-re, mi-hi jam non sis a-
V:a
{G}F3G{F}E3E|D2z2D3E|D3ED3E|
w:te-cum plan-ge-re, mi-hi jam non sis a-
V:1
z[fa] z[fb] z[eg] z[eg]|f2z2z2B2-|B3=A(B3A)|
V:2
x8|x4([DF]3[E_G]|[DF]3[E_G])([DF]3[EG])|
V:3
F,z B,,z E,z =A,,z|B,,2z2z2B,,2-|B,,_C,B,,2-B,,C,B,,2-|
V:s		% M76
F/=E/ Fz2B2z2|=A3A B/A/ Bz2|_A3AG2(c/A3/)|
w:ma -ra, fac, fac me te -cum, fac me te-cum_
V:a
D/C/ Dz2E2z2|z8|F3FE2E2|
w:ma -ra, fac, fac me te-cum
V:1
B_Az2z/(e/d/e/ d/e/d/e/)|{B}=A4B/(f/=e/f/ e/f/e/f/)|{B}_A4G/B/A/G/ c/A/G/F/|
V:2
[DF]/[C=E]/[DF] FD!dolce!_E2z2|x8|!forte!x8|
V:3
B,,F,D,B,,G,,2z2|z(_G,F,E,)D,2z2|z[B,,B,][C,C][D,D] [E,E][E,E][A,,A,][A,,A,]|
V:s		% M79
(G2F3/) F/E2z2|z8|f2f2(e/g/f/e/ d/c/) B/A/|
w:plan -ge-re, fac me te -----cum_
V:a
(E2D3/) D/E2z2|=A3A B/A/ Bz2|_A2A2G2E2|
w:plan -ge-re, fac me te -cum, fac me te-cum
V:1
E3/F/TF2E/(e/d/e/ d/e/d/e/)|{B}=A4B/(f/=e/f/ e/f/e/f/)|[f_a]4[eg][df]/[c_e]/ [Bd]/[Ac]/[GB]/[FA]/|
V:2
x4x!dolce!x3|x8|!forte!x8|
V:3
[B,,B,][B,,B,][B,,B,][B,,B,]E,2z2|z(_G,F,E,)D,2z2|z[B,,B,][C,C][D,D] [E,E]F,G,A,|
% (47)
V:s		% M82
(G2F3/) F/E2z2|z8|Hz8|]
w:plan -ge-re.
V:a
(E2D3/) D/E2z2|z8|Hz8|]
w:plan -ge-re.
V:1
[EG]2[DF]2(G/E/)(E/G/) (G/B/)(B/_d/)|(c/=d/)(d/e/) (e/B/G/E/) (F/A/)(G/B/) (TA3/G//F//)|(G/c/A/F/){E}D2EB,HG,2|]
V:2
x8|x8|x8|]
V:3
B,B,[B,,B,][B,,B,] E,E,E,E,|E,E,E,E, B,,B,,B,,B,,|E,A,,B,,B,,E,,2Hz2|]

